X: 1
T: Itchy Fingers
C: P.M. Rab Pinkman
R: hornpipe, reel
M: 4/4
L: 1/8
F: http://www.melbournescottishfiddlers.com/sheetmusic/Itchy_Fingers.pdf 2009-4-22
F: http/www.thesession.org/tunes/display/3931 2009-4-22
R: reel
K: Amix
cd \
| e2ef eAce | fAdf e2cd | e2ef eAce | cAdc B2cd |
| e2ef eAce | fAdf e2ce | dccB BfeB | c2A2 A2 :|
ce \
| a2Aa caAa | fada e2ce | a2Aa caAa | cAdc B2ce |
| a2Aa caAa | fada e2ce | dccB BfeB | c2A2 A2 |]
ce \
| a2Aa caAa | fada e2ce | a2Aa caAa | cAdc B2cd |
| e2ef eAce | ddaf e2ce | dccB BfeB | c2A2 A2 |]
